!! 00000] TT[WS
!!!OTL: Yuanyuan liaojian niangjia de men
!!!ARE: Asia, China, Shanxi Hequ
!! Ethnic Group: Han
!! WII, 3 (2)
!!!SCT: J0405
!!!YEM: Copyright 1995, estate of Helmut Schaffrath.
**kern
*ICvox
*Ivox
*M2/4
*k[b-e-]
*B-:
{8gg
8gg
16gg
16fff
16ddd
16fff
=1
8gg
16gg
16ff
8.dd
16ff
=2
8.ff
16ccc
8bb-
16bb-
16ff
=3
2gg}
=4
{8gg
8gg
16gg
16fff
16ddd
16fff
=5
8gg
16gg
16ff
8.dd
16ff
=6
8.ff
16ccc
8bb-
8dd
=7
2cc}
==
!!!AGN: Shange, Shanqu. Qingge, Aisu
!!!ONB: ESAC (Essen Associative Code) Database: CHINA
!!!AMT: simple duple
!!!AIN: vox
!!!EED: Helmut Schaffrath
!!!EEV: 1.0
*-
